PortableApps/LibreOfficePortable/App/libreoffice/help/media/icon-themes/svx/res/marker-rect9-3.svg

<svg viewBox="0 0 9 9" xmlns="http://www.w3.org/2000/svg"><path d="m1 1.0000467v7.0000253h7.0000002v-7.0000253z" fill="#76a797" opacity=".66"/><path d="m0 0v8 1h8 1v-9h-1-7zm1 1h7v7h-7z" fill="#588878" opacity=".9"/></svg>

<svg viewBox="0 0 9 9" xmlns="http://www.w3.org/2000/svg">
  <path
     style="fill:#76a797;opacity:0.66"
     d="M 1,1.0000467 V 8.000072 H 8.0000002 V 1.0000467 Z" />
  <path
     style="fill:#588878;opacity:0.9"
     d="M 0 0 L 0 8 L 0 9 L 8 9 L 9 9 L 9 0 L 8 0 L 1 0 L 0 0 z M 1 1 L 8 1 L 8 8 L 1 8 L 1 1 z "
     />
</svg>
